X:2
T:Ó, én édes pintesüvegem
K: F
L:1/4
M:2/4
g/a/g/f/ | dc | d/e/f | 
gg/f/ | dc | dd | 
f/d/c/B/ |G F | G/A/B | 
cc/B/ | GF | GG

